src/components/Intro/img/plus.svg

<svg width="60" height="60" viewBox="0 0 60 60" fill="none" xmlns="http://www.w3.org/2000/svg">
<rect x="0.434966" y="0.434722" width="59.1304" height="59.1304" rx="12.9088" stroke="white" stroke-opacity="0.12" stroke-width="0.832823"/>
<path fill-rule="evenodd" clip-rule="evenodd" d="M30.4583 21.7549C29.6994 21.7549 29.0841 22.3701 29.0841 23.129V28.6256H23.587C22.8281 28.6256 22.2129 29.2409 22.2129 29.9998C22.2129 30.7587 22.8281 31.3739 23.587 31.3739H29.0841L29.0841 36.8706C29.0841 37.6295 29.6994 38.2448 30.4583 38.2448C31.2172 38.2448 31.8324 37.6295 31.8324 36.8706V31.3739H37.3286C38.0876 31.3739 38.7028 30.7587 38.7028 29.9998C38.7028 29.2409 38.0876 28.6256 37.3286 28.6256L31.8324 28.6256L31.8324 23.129C31.8324 22.3701 31.2172 21.7549 30.4583 21.7549Z" fill="#D9D9D9"/>
</svg>

<svg xmlns="http://www.w3.org/2000/svg" width="60" height="60" fill="none" xmlns:v="https://vecta.io/nano"><rect x=".435" y=".435" width="59.13" height="59.13" rx="12.909" stroke="#fff" stroke-opacity=".12" stroke-width=".833"/><path fill-rule="evenodd" d="M30.458 21.755c-.759 0-1.374.615-1.374 1.374v5.497h-5.497c-.759 0-1.374.615-1.374 1.374s.615 1.374 1.374 1.374h5.497v5.497c0 .759.615 1.374 1.374 1.374s1.374-.615 1.374-1.374v-5.497h5.496c.759 0 1.374-.615 1.374-1.374s-.615-1.374-1.374-1.374h-5.496v-5.497c0-.759-.615-1.374-1.374-1.374z" fill="#d9d9d9"/></svg>
